X: 0
T: The Picc Line
C: Heather Shelley
R: jig
M: 6/8
L: 1/8
K: Amaj
%%linebreak $
|: "A"c2a fec | BcB BAF | AAA BAB | "E"cBe cBA |$
"A"c2a fec | "E"BcB BAF | A2A "D"FEF | "A"A2A A3 :|$
|: "F#m"F3 EFA | Bce cBA | "E"BBB BAB | cBe cBA |$
|1"F#m"F3 EFA |Bce cBA | "E"B2B AcB | "A"A3 A3 :|$
|2"F#m"F3 EFA |Bce cBA |"A" cea fec | "E"BcB "A"A3 |]